static/assets/images/icons/flash.svg

<svg width="256" height="256" viewBox="0 0 256 256" fill="none" xmlns="http://www.w3.org/2000/svg">
<path d="M96.9325 154.83L115.236 154.761C118.389 154.749 119.965 154.743 120.673 155.823C121.382 156.904 120.95 158.657 120.087 162.162L103.882 227.961C103.71 228.658 103.55 229.338 103.4 230.002C101.367 239.019 109.049 241.005 114.609 232.892C114.968 232.368 115.33 231.83 115.696 231.278L115.859 231.032L173.927 143.261C186.511 124.249 192.803 114.743 190.549 107.911C188.294 101.079 178.878 101.099 160.068 101.17L141.764 101.239C138.611 101.251 137.035 101.257 136.327 100.177C135.618 99.0961 136.05 97.3434 136.913 93.8381L153.118 28.0393C153.29 27.3421 153.45 26.6616 153.6 25.9977C155.633 16.9807 147.951 14.9947 142.391 23.1081C142.032 23.6319 141.67 24.1698 141.304 24.7219L141.141 24.9682L83.0726 112.739C70.4886 131.751 64.1966 141.257 66.4515 148.089C68.7064 154.921 78.1216 154.901 96.9325 154.83Z" fill="black"/>
</svg>

<svg xmlns="http://www.w3.org/2000/svg" fill="none" viewBox="0 0 256 256"><path fill="#000" d="m96.933 154.83 18.303-.069c3.153-.012 4.729-.018 5.437 1.062s.277 2.834-.586 6.339l-16.205 65.799q-.257 1.045-.482 2.041c-2.033 9.017 5.649 11.003 11.209 2.89q.538-.786 1.087-1.614l.163-.246 58.068-87.771c12.584-19.012 18.876-28.518 16.622-35.35s-11.671-6.812-30.481-6.741l-18.304.069c-3.153.012-4.729.018-5.437-1.062s-.277-2.834.586-6.339l16.205-65.799q.257-1.045.482-2.041c2.033-9.017-5.649-11.003-11.209-2.89q-.538.786-1.087 1.614l-.163.246-58.068 87.771c-12.584 19.012-18.876 28.518-16.621 35.35 2.254 6.832 11.67 6.812 30.48 6.741"/></svg>
